icons/codecov/codecov-plain.svg

<?xml version="1.0" encoding="UTF-8" standalone="no"?>
<svg
   xmlns:dc="http://purl.org/dc/elements/1.1/"
   xmlns:cc="http://creativecommons.org/ns#"
   xmlns:rdf="http://www.w3.org/1999/02/22-rdf-syntax-ns#"
   xmlns:svg="http://www.w3.org/2000/svg"
   xmlns="http://www.w3.org/2000/svg"
   xmlns:sodipodi="http://sodipodi.sourceforge.net/DTD/sodipodi-0.dtd"
   xmlns:inkscape="http://www.inkscape.org/namespaces/inkscape"
   viewBox="0 0 128 128"
   version="1.1"
   id="svg4"
   sodipodi:docname="codecov-plain.svg"
   inkscape:version="1.0.2-2 (e86c870879, 2021-01-15)">
  <metadata
     id="metadata10">
    <rdf:RDF>
      <cc:Work
         rdf:about="">
        <dc:format>image/svg+xml</dc:format>
        <dc:type
           rdf:resource="http://purl.org/dc/dcmitype/StillImage" />
      </cc:Work>
    </rdf:RDF>
  </metadata>
  <defs
     id="defs8" />
  <sodipodi:namedview
     pagecolor="#ffffff"
     bordercolor="#666666"
     borderopacity="1"
     objecttolerance="10"
     gridtolerance="10"
     guidetolerance="10"
     inkscape:pageopacity="0"
     inkscape:pageshadow="2"
     inkscape:window-width="1440"
     inkscape:window-height="748"
     id="namedview6"
     showgrid="false"
     inkscape:zoom="2.265625"
     inkscape:cx="97.649618"
     inkscape:cy="49.619804"
     inkscape:window-x="-6"
     inkscape:window-y="-6"
     inkscape:window-maximized="1"
     inkscape:current-layer="svg4" />
  <path
     id="path872"
     d="M 64.046875,0 C 28.773438,0.0195312 0.0585938,26.203125 0.03125,58.359375 3.5542759,60.756898 5.6423261,61.83594 8.4414062,63.007812 14.171875,59.449219 20.8125,57.566406 27.644531,57.566406 c 2.039063,0 4.097657,0.171875 6.117188,0.507813 6.371093,1.054687 17.527343,6.972656 22.152343,10.921875 1.058594,-2.128906 2.304688,-4.195312 3.777344,-6.167969 0.601562,-0.800781 1.238281,-1.582031 1.902344,-2.34375 C 55.769531,56.000001 43.328125,49.695312 35.691406,48.429688 33.03125,47.988281 30.332031,47.765625 27.632812,47.765625 c -5.523437,-0.0078 -11,0.929687 -16.144531,2.761719 C 15.667969,27.195312 37.910156,9.8203123 64.09375,9.8007812 c 14.195312,0 27.535152,5.0351568 37.56641,14.1757808 8.00781,7.292969 13.125,16.414063 14.89453,26.472657 -5.16406,-1.835938 -10.60547,-2.777344 -16.19922,-2.796875 l -0.785158,-0.0039 c -0.566406,0.0078 -1.132812,0.02344 -1.699218,0.05078 -0.976563,0.04297 -1.949219,0.125 -2.910156,0.226562 -0.285157,0.02734 -0.570313,0.07031 -0.851563,0.105469 -0.691406,0.08594 -1.375,0.179688 -2.054687,0.292969 -0.304688,0.04687 -0.601563,0.101562 -0.902344,0.15625 -0.6875,0.128906 -1.375,0.273437 -2.054688,0.429687 -0.246094,0.05469 -0.492187,0.109375 -0.734375,0.167969 -0.855469,0.210937 -1.707031,0.445313 -2.546875,0.703125 -0.05078,0.01563 -0.101562,0.02734 -0.152344,0.04297 -1.890624,0.589843 -3.738281,1.296875 -5.527343,2.117187 -0.04687,0.02344 -0.09375,0.04687 -0.144531,0.07031 -0.832032,0.382812 -1.652344,0.792969 -2.457032,1.230469 l -0.199218,0.105468 c -4.242188,2.320313 -8.011719,5.285156 -11.148438,8.773438 -0.128906,0.144531 -0.261719,0.289062 -0.390625,0.433594 -0.6875,0.785156 -1.359375,1.589843 -1.988281,2.429687 -0.648438,0.878906 -1.261719,1.777344 -1.835938,2.695313 -0.4375,0.691406 -0.855468,1.398437 -1.246094,2.113281 -0.02344,0.03906 -0.04687,0.07813 -0.06641,0.121093 -0.902344,1.660157 -1.675781,3.375 -2.320312,5.132813 v 0.0078 c -1.574219,4.300781 -2.335938,8.816406 -2.253906,13.351562 0.0039,0.179688 0.0039,0.363281 0.0078,0.542969 0.01172,0.355469 0.03125,0.710937 0.05469,1.066406 0.03516,0.582031 0.08203,1.164063 0.144531,1.746094 0.03906,0.363281 0.08594,0.730469 0.136719,1.097656 0.03125,0.230469 0.05859,0.464844 0.09766,0.699219 0.09375,0.609375 0.203125,1.21875 0.328125,1.824218 1.55361,7.488118 5.387693,14.235198 10.912109,19.730468 3.555277,-1.38288 5.652045,-4.22426 7.134766,-7.67969 C 69.968643,102.10813 66.875,95.33854 66.875,87.9375 c 0,-16.101562 13.808594,-29.472656 31.433594,-30.441406 l 1.113281,-0.03906 c 7.144535,-0.164062 14.183595,1.757813 20.160155,5.464844 l 4.01758,-2.599609 4.38867,-2.029297 C 128.00003,42.707028 121.35156,28.058594 109.26562,17.046875 97.20312,6.054688 81.160156,0 64.046875,0 Z"
     sodipodi:nodetypes="cccsccccccccccccccccccccccccccccccccccccccccccsccccccc" />
</svg>

<svg xmlns="http://www.w3.org/2000/svg" viewBox="0 0 128 128">
<path fill="#E0225C" d="M 109.265625 17.046875 C 97.203125 6.054688 81.160156 0 64.046875 0 C 28.773438 0.0195312 0.0585938 26.203125 0.03125 58.359375 L 0.0117188 68.242188 L 8.441406 63.007812 C 14.171875 59.449219 20.8125 57.566406 27.644531 57.566406 C 29.683594 57.566406 31.742188 57.738281 33.761719 58.074219 C 40.132812 59.128906 45.84375 61.757812 50.46875 65.707031 C 51.527344 63.578125 52.773438 61.511719 54.246094 59.539062 C 54.847656 58.738281 55.484375 57.957031 56.148438 57.195312 C 50.324219 52.710938 43.328125 49.695312 35.691406 48.429688 C 33.03125 47.988281 30.332031 47.765625 27.632812 47.765625 C 22.109375 47.757812 16.632812 48.695312 11.488281 50.527344 C 15.667969 27.195312 37.910156 9.820312 64.09375 9.800781 C 78.289062 9.800781 91.628906 14.835938 101.660156 23.976562 C 109.667969 31.269531 114.785156 40.390625 116.554688 50.449219 C 111.390625 48.613281 105.949219 47.671875 100.355469 47.652344 L 99.570312 47.648438 C 99.003906 47.65625 98.4375 47.671875 97.871094 47.699219 C 96.894531 47.742188 95.921875 47.824219 94.960938 47.925781 C 94.675781 47.953125 94.390625 47.996094 94.109375 48.03125 C 93.417969 48.117188 92.734375 48.210938 92.054688 48.324219 C 91.75 48.371094 91.453125 48.425781 91.152344 48.480469 C 90.464844 48.609375 89.777344 48.753906 89.097656 48.910156 C 88.851562 48.964844 88.605469 49.019531 88.363281 49.078125 C 87.507812 49.289062 86.65625 49.523438 85.816406 49.78125 C 85.765625 49.796875 85.714844 49.808594 85.664062 49.824219 C 83.773438 50.414062 81.925781 51.121094 80.136719 51.941406 C 80.089844 51.964844 80.042969 51.988281 79.992188 52.011719 C 79.160156 52.394531 78.339844 52.804688 77.535156 53.242188 L 77.335938 53.347656 C 73.09375 55.667969 69.324219 58.632812 66.1875 62.121094 C 66.058594 62.265625 65.925781 62.410156 65.796875 62.554688 C 65.109375 63.339844 64.4375 64.144531 63.808594 64.984375 C 63.160156 65.863281 62.546875 66.761719 61.972656 67.679688 C 61.535156 68.371094 61.117188 69.078125 60.726562 69.792969 C 60.703125 69.832031 60.679688 69.871094 60.660156 69.914062 C 59.757812 71.574219 58.984375 73.289062 58.339844 75.046875 L 58.339844 75.054688 C 56.765625 79.355469 56.003906 83.871094 56.085938 88.40625 C 56.089844 88.585938 56.089844 88.769531 56.09375 88.949219 C 56.105469 89.304688 56.125 89.660156 56.148438 90.015625 C 56.183594 90.597656 56.230469 91.179688 56.292969 91.761719 C 56.332031 92.125 56.378906 92.492188 56.429688 92.859375 C 56.460938 93.089844 56.488281 93.324219 56.527344 93.558594 C 56.621094 94.167969 56.730469 94.777344 56.855469 95.382812 C 59.023438 105.832031 65.484375 114.941406 75.046875 121.035156 L 76.269531 121.75 L 76.28125 121.726562 C 81.75 124.960938 87.933594 127.050781 94.390625 127.855469 L 95.265625 127.960938 L 101.75 118.476562 L 99.417969 118.417969 C 81.472656 117.96875 66.875 104.296875 66.875 87.9375 C 66.875 71.835938 80.683594 58.464844 98.308594 57.496094 L 99.421875 57.457031 C 106.566406 57.292969 113.605469 59.214844 119.582031 62.921875 L 127.96875 68.125 L 127.988281 58.292969 C 128 42.707031 121.351562 28.058594 109.265625 17.046875 "/>
</svg>
